X:30
T:Rose in the Heather, The
N:For teaching purposes, from Alan Ng
Z: id:ng-jigs-30 transcribed by Alan Ng alan@alan-ng.nospam (net) 31 Jan. 2004
M:6/8
L:1/8
K:D
|FAF EFE|DFA BAF|ABd ede|fdB AFD|FAF EFE|DFA BAF|AdB AFE|FDD D2:|*
|:g|fdB ABd|faa afd|g2g fed|Bee efg|fdB ABd|faa afa|baf gfe|fdd d2:|**
